images/resources/cpu.svg

<svg xmlns="http://www.w3.org/2000/svg" viewBox="0 0 24 24"><path d="M14.25 8h-4.5A1.752 1.752 0 008 9.75v4.5A1.752 1.752 0 009.75 16h4.5A1.752 1.752 0 0016 14.25v-4.5A1.752 1.752 0 0014.25 8zM14 14h-4v-4h4zm8-5a1 1 0 000-2h-2v-.25A2.752 2.752 0 0017.25 4H17V2a1 1 0 00-2 0v2h-2V2a1 1 0 00-2 0v2H9V2a1 1 0 00-2 0v2h-.25A2.752 2.752 0 004 6.75V7H2a1 1 0 000 2h2v2H2a1 1 0 000 2h2v2H2a1 1 0 000 2h2v.25A2.752 2.752 0 006.75 20H7v2a1 1 0 002 0v-2h2v2a1 1 0 002 0v-2h2v2a1 1 0 002 0v-2h.25A2.752 2.752 0 0020 17.25V17h2a1 1 0 000-2h-2v-2h2a1 1 0 000-2h-2V9zm-4 8.25a.751.751 0 01-.75.75H6.75a.751.751 0 01-.75-.75V6.75A.751.751 0 016.75 6h10.5a.751.751 0 01.75.75z" fill="#fff"/></svg>

<svg xmlns="http://www.w3.org/2000/svg" viewBox="0 0 24 24"><path style="fill: rgb(255,255,255); fill-rule: nonzero; opacity: 1;" d="M14.25,8H9.75A1.752,1.752,0,0,0,8,9.75v4.5A1.752,1.752,0,0,0,9.75,16h4.5A1.752,1.752,0,0,0,16,14.25V9.75A1.752,1.752,0,0,0,14.25,8ZM14,14H10V10h4Zm8-5a1,1,0,0,0,0-2H20V6.75A2.752,2.752,0,0,0,17.25,4H17V2a1,1,0,0,0-2,0V4H13V2a1,1,0,0,0-2,0V4H9V2A1,1,0,0,0,7,2V4H6.75A2.752,2.752,0,0,0,4,6.75V7H2A1,1,0,0,0,2,9H4v2H2a1,1,0,0,0,0,2H4v2H2a1,1,0,0,0,0,2H4v.25A2.752,2.752,0,0,0,6.75,20H7v2a1,1,0,0,0,2,0V20h2v2a1,1,0,0,0,2,0V20h2v2a1,1,0,0,0,2,0V20h.25A2.752,2.752,0,0,0,20,17.25V17h2a1,1,0,0,0,0-2H20V13h2a1,1,0,0,0,0-2H20V9Zm-4,8.25a.751.751,0,0,1-.75.75H6.75A.751.751,0,0,1,6,17.25V6.75A.751.751,0,0,1,6.75,6h10.5a.751.751,0,0,1,.75.75Z"/></svg>
